32x32/apps/allegorithmic-Substance_Alchemist.svg

<svg xmlns="http://www.w3.org/2000/svg" width="32" height="32" version="1.1">
 <path style="opacity:0.2" d="M 16,5.0001 A 2.1798,2.1577 0 0 0 14.112,6.0768 L 2.6291,25.764 A 2.1798,2.1577 0 0 0 3.4274,28.711 2.1798,2.1577 0 0 0 4.5258,28.998 V 29 H 27.474 V 28.998 A 2.1798,2.1577 0 0 0 28.572,28.711 2.1798,2.1577 0 0 0 29.371,25.763 L 17.888,6.0767 A 2.1798,2.1577 0 0 0 16,5 Z"/>
 <path style="fill:#ff8a18" d="M 16,4.0001 A 2.1798,2.1577 0 0 0 14.112,5.0768 L 2.6291,24.764 A 2.1798,2.1577 0 0 0 3.4274,27.711 2.1798,2.1577 0 0 0 4.5258,27.998 V 28 H 27.474 V 27.998 A 2.1798,2.1577 0 0 0 28.572,27.711 2.1798,2.1577 0 0 0 29.371,24.763 L 17.888,5.0767 A 2.1798,2.1577 0 0 0 16,4 Z"/>
 <path style="fill:#f4f4f7;opacity:0.2" d="M 16 4 A 2.1798 2.1577 0 0 0 14.111 5.0762 L 2.6289 24.764 A 2.1798 2.1577 0 0 0 2.3984 26.338 A 2.1798 2.1577 0 0 1 2.6289 25.764 L 14.111 6.0762 A 2.1798 2.1577 0 0 1 16 5 A 2.1798 2.1577 0 0 1 17.889 6.0762 L 29.371 25.764 A 2.1798 2.1577 0 0 1 29.602 26.342 A 2.1798 2.1577 0 0 0 29.371 24.764 L 17.889 5.0762 A 2.1798 2.1577 0 0 0 16 4 z"/>
 <path style="opacity:0.2" d="M 16,11 8,15 V 19 L 20,23 16,25 12,23 V 22 L 8,20.667 V 25 L 16,29 24,25 V 21 L 12,17 16,15 20,17 V 18 L 24,19.333 V 15 Z"/>
 <path style="fill:#f4f4f7" d="M 16,10 8,14 V 18 L 20,22 16,24 12,22 V 21 L 8,19.667 V 24 L 16,28 24,24 V 20 L 12,16 16,14 20,16 V 17 L 24,18.333 V 14 Z"/>
</svg>

<svg xmlns="http://www.w3.org/2000/svg" width="32" height="32"><path style="opacity:.2" d="M16 5a2.18 2.158 0 0 0-1.888 1.077L2.629 25.764a2.18 2.158 0 0 0 .798 2.947 2.18 2.158 0 0 0 1.099.287V29h22.948v-.002a2.18 2.158 0 0 0 1.098-.287 2.18 2.158 0 0 0 .799-2.948L17.888 6.077A2.18 2.158 0 0 0 16 5z"/><path style="fill:#ff8a18" d="M16 4a2.18 2.158 0 0 0-1.888 1.077L2.629 24.764a2.18 2.158 0 0 0 .798 2.947 2.18 2.158 0 0 0 1.099.287V28h22.948v-.002a2.18 2.158 0 0 0 1.098-.287 2.18 2.158 0 0 0 .799-2.948L17.888 5.077A2.18 2.158 0 0 0 16 4z"/><path style="fill:#f4f4f7;opacity:.2" d="M16 4a2.18 2.158 0 0 0-1.889 1.076L2.629 24.764a2.18 2.158 0 0 0-.23 1.574 2.18 2.158 0 0 1 .23-.574L14.11 6.076A2.18 2.158 0 0 1 16 5a2.18 2.158 0 0 1 1.889 1.076l11.482 19.688a2.18 2.158 0 0 1 .231.578 2.18 2.158 0 0 0-.231-1.578L17.889 5.076A2.18 2.158 0 0 0 16 4z"/><path style="opacity:.2" d="m16 11-8 4v4l12 4-4 2-4-2v-1l-4-1.333V25l8 4 8-4v-4l-12-4 4-2 4 2v1l4 1.333V15z"/><path style="fill:#f4f4f7" d="m16 10-8 4v4l12 4-4 2-4-2v-1l-4-1.333V24l8 4 8-4v-4l-12-4 4-2 4 2v1l4 1.333V14z"/></svg>
